OBS Studio/Fluent Dark Grey/sources/scene.svg

<svg viewBox="64 64 896 832" xmlns="http://www.w3.org/2000/svg"><path d="m128 256c-9 0-17.417-1.667-25.25-5-7.8333-3.333-14.583-7.833-20.25-13.5s-10.167-12.417-13.5-20.25-5-16.25-5-25.25v-64c0-9 1.6667-17.333 5-25 3.3333-7.6666 7.9167-14.417 13.75-20.25 5.8333-5.8333 12.583-10.417 20.25-13.75 7.667-3.3333 16-4.9999 25-5h64c8.667 1e-4 16.917 1.6667 24.75 5 7.833 3.3334 14.667 7.9167 20.5 13.75 5.833 5.8334 10.417 12.667 13.75 20.5 3.333 7.833 5 16.083 5 24.75v64c0 9-1.667 17.333-5 25s-7.917 14.417-13.75 20.25-12.583 10.417-20.25 13.75-16 5-25 5zm0-128v64h64v-64zm224 64c-8.667 0-16.167-3.167-22.5-9.5s-9.5-13.833-9.5-22.5 3.167-16.167 9.5-22.5 13.833-9.5 22.5-9.5h576c8.667 0 16.167 3.167 22.5 9.5s9.5 13.833 9.5 22.5-3.167 16.167-9.5 22.5-13.833 9.5-22.5 9.5zm-224 384c-9 0-17.417-1.667-25.25-5-7.8333-3.333-14.583-7.833-20.25-13.5s-10.167-12.417-13.5-20.25-5-16.25-5-25.25v-64c0-9 1.6667-17.333 5-25s7.9167-14.417 13.75-20.25 12.583-10.417 20.25-13.75c7.667-3.333 16-5 25-5h64c8.667 0 16.917 1.667 24.75 5s14.667 7.917 20.5 13.75 10.417 12.667 13.75 20.5 5 16.083 5 24.75v64c0 9-1.667 17.333-5 25s-7.917 14.417-13.75 20.25-12.583 10.417-20.25 13.75-16 5-25 5zm0-128v64h64v-64zm224 64c-8.667 0-16.167-3.167-22.5-9.5s-9.5-13.833-9.5-22.5 3.167-16.167 9.5-22.5 13.833-9.5 22.5-9.5h576c8.667 0 16.167 3.167 22.5 9.5s9.5 13.833 9.5 22.5-3.167 16.167-9.5 22.5-13.833 9.5-22.5 9.5zm-224 384c-9 0-17.417-1.667-25.25-5-7.8333-3.333-14.583-7.833-20.25-13.5s-10.167-12.417-13.5-20.25-5-16.25-5-25.25v-64c0-9 1.6667-17.333 5-25s7.9167-14.417 13.75-20.25 12.583-10.417 20.25-13.75c7.667-3.333 16-5 25-5h64c8.667 0 16.917 1.667 24.75 5s14.667 7.917 20.5 13.75 10.417 12.667 13.75 20.5 5 16.083 5 24.75v64c0 9-1.667 17.333-5 25s-7.917 14.417-13.75 20.25-12.583 10.417-20.25 13.75-16 5-25 5zm0-128v64h64v-64zm224 64c-8.667 0-16.167-3.167-22.5-9.5s-9.5-13.833-9.5-22.5 3.167-16.167 9.5-22.5 13.833-9.5 22.5-9.5h576c8.667 0 16.167 3.167 22.5 9.5s9.5 13.833 9.5 22.5-3.167 16.167-9.5 22.5-13.833 9.5-22.5 9.5z" fill="#fff"></path></svg>

<!-- Exported by Character Map UWP -->
<svg height="100%" viewBox="64 64 896 832" width="100%" xmlns="http://www.w3.org/2000/svg" xmlns:xlink="http://www.w3.org/1999/xlink">
  <path d="M128,256C119,256 110.583,254.333 102.75,251C94.9167,247.667 88.1667,243.167 82.5,237.5C76.8333,231.833 72.3333,225.083 69,217.25C65.6667,209.417 64,201 64,192L64,128C64,119 65.6667,110.667 69,103C72.3333,95.3334 76.9167,88.5834 82.75,82.75C88.5833,76.9167 95.3333,72.3334 103,69C110.667,65.6667 119,64.0001 128,64L192,64C200.667,64.0001 208.917,65.6667 216.75,69C224.583,72.3334 231.417,76.9167 237.25,82.75C243.083,88.5834 247.667,95.4167 251,103.25C254.333,111.083 256,119.333 256,128L256,192C256,201 254.333,209.333 251,217C247.667,224.667 243.083,231.417 237.25,237.25C231.417,243.083 224.667,247.667 217,251C209.333,254.333 201,256 192,256ZM128,128L128,192L192,192L192,128ZM352,192C343.333,192 335.833,188.833 329.5,182.5C323.167,176.167 320,168.667 320,160C320,151.333 323.167,143.833 329.5,137.5C335.833,131.167 343.333,128 352,128L928,128C936.667,128 944.167,131.167 950.5,137.5C956.833,143.833 960,151.333 960,160C960,168.667 956.833,176.167 950.5,182.5C944.167,188.833 936.667,192 928,192ZM128,576C119,576 110.583,574.333 102.75,571C94.9167,567.667 88.1667,563.167 82.5,557.5C76.8333,551.833 72.3333,545.083 69,537.25C65.6667,529.417 64,521 64,512L64,448C64,439 65.6667,430.667 69,423C72.3333,415.333 76.9167,408.583 82.75,402.75C88.5833,396.917 95.3333,392.333 103,389C110.667,385.667 119,384 128,384L192,384C200.667,384 208.917,385.667 216.75,389C224.583,392.333 231.417,396.917 237.25,402.75C243.083,408.583 247.667,415.417 251,423.25C254.333,431.083 256,439.333 256,448L256,512C256,521 254.333,529.333 251,537C247.667,544.667 243.083,551.417 237.25,557.25C231.417,563.083 224.667,567.667 217,571C209.333,574.333 201,576 192,576ZM128,448L128,512L192,512L192,448ZM352,512C343.333,512 335.833,508.833 329.5,502.5C323.167,496.167 320,488.667 320,480C320,471.333 323.167,463.833 329.5,457.5C335.833,451.167 343.333,448 352,448L928,448C936.667,448 944.167,451.167 950.5,457.5C956.833,463.833 960,471.333 960,480C960,488.667 956.833,496.167 950.5,502.5C944.167,508.833 936.667,512 928,512ZM128,896C119,896 110.583,894.333 102.75,891C94.9167,887.667 88.1667,883.167 82.5,877.5C76.8333,871.833 72.3333,865.083 69,857.25C65.6667,849.417 64,841 64,832L64,768C64,759 65.6667,750.667 69,743C72.3333,735.333 76.9167,728.583 82.75,722.75C88.5833,716.917 95.3333,712.333 103,709C110.667,705.667 119,704 128,704L192,704C200.667,704 208.917,705.667 216.75,709C224.583,712.333 231.417,716.917 237.25,722.75C243.083,728.583 247.667,735.417 251,743.25C254.333,751.083 256,759.333 256,768L256,832C256,841 254.333,849.333 251,857C247.667,864.667 243.083,871.417 237.25,877.25C231.417,883.083 224.667,887.667 217,891C209.333,894.333 201,896 192,896ZM128,768L128,832L192,832L192,768ZM352,832C343.333,832 335.833,828.833 329.5,822.5C323.167,816.167 320,808.667 320,800C320,791.333 323.167,783.833 329.5,777.5C335.833,771.167 343.333,768 352,768L928,768C936.667,768 944.167,771.167 950.5,777.5C956.833,783.833 960,791.333 960,800C960,808.667 956.833,816.167 950.5,822.5C944.167,828.833 936.667,832 928,832Z" fill="#FFFFFF" fill-opacity="1">
  </path>
</svg>
